packages/swarm-icons/src/icons/large/Home Selected.svg

<svg xmlns="http://www.w3.org/2000/svg" width="28" height="28" viewBox="0 0 28 28">
  <path fill="#212121" d="M12,24.6 C12,25.1522847 11.5522847,25.6 11,25.6 L5.95,25.6 C5.39771525,25.6 4.95,25.1522847 4.95,24.6 L4.95,14.1 L2.5,14.1 C1.58351585,14.1 1.14981796,12.9698014 1.83103527,12.3567059 L13.3310353,2.00670585 C13.7113402,1.66443138 14.2886598,1.66443138 14.6689647,2.00670585 L26.1689647,12.3567059 C26.850182,12.9698014 26.4164842,14.1 25.5,14.1 L23.05,14.1 L23.05,24.6 C23.05,25.1522847 22.6022847,25.6 22.05,25.6 L17,25.6 C16.4477153,25.6 16,25.1522847 16,24.6 L16,17.55 L12,17.55 L12,24.6 Z"/>
</svg>

<svg xmlns="http://www.w3.org/2000/svg" width="28" height="28"><path fill="#212121" d="M12 24.6a1 1 0 01-1 1H5.95a1 1 0 01-1-1V14.1H2.5c-.916 0-1.35-1.13-.669-1.743l11.5-10.35a1 1 0 011.338 0l11.5 10.35c.681.613.247 1.743-.669 1.743h-2.45v10.5a1 1 0 01-1 1H17a1 1 0 01-1-1v-7.05h-4v7.05z"/></svg>
